dist/icons/svgs/house-circle-check-outline.svg

<svg xmlns="http://www.w3.org/2000/svg" width="24" height="24" fill="currentcolor" class="icon-house-circle-check-outline" viewBox="0 0 24 24">
  <path d="M12.3559 2.23448L20.714 9.62089C20.3392 9.54273 19.9644 9.50365 19.5896 9.50365C19.0274 9.50365 18.5402 9.58181 18.0154 9.69906L11.7937 4.18855L5.19712 10.0117V18.8832C5.19712 19.5867 5.72185 20.1338 6.3965 20.1338H8.19556V14.1934C8.19556 13.3336 8.83273 12.6302 9.69478 12.6302H13.8926C13.9301 12.6302 13.9676 12.6302 14.0425 12.6693C13.6677 13.2164 13.4053 13.8417 13.2179 14.5061H9.99462V20.1338H13.5928H14.0425C14.4923 20.8764 15.092 21.5408 15.7666 22.0098H6.3965C4.70988 22.0098 3.39806 20.6419 3.39806 18.8832V11.6141L2.46105 12.4348C2.08624 12.7474 1.52404 12.7083 1.18671 12.3175C0.886868 11.9267 0.924349 11.3405 1.29915 10.9887L11.194 2.23448C11.5313 1.9609 12.0186 1.9609 12.3559 2.23448ZM24.9868 16.382C24.9868 18.4143 23.9374 20.2511 22.2882 21.2672C20.6016 22.2833 18.5402 22.2833 16.891 21.2672C15.2044 20.2511 14.1924 18.4143 14.1924 16.382C14.1924 14.3888 15.2044 12.552 16.891 11.5359C18.5402 10.5198 20.6016 10.5198 22.2882 11.5359C23.9374 12.552 24.9868 14.3888 24.9868 16.382ZM22.1008 14.7015C21.8759 14.467 21.4637 14.467 21.2388 14.7015L18.9899 17.0855L17.903 15.9521C17.6781 15.7176 17.2658 15.7176 17.041 15.9521C16.8161 16.1866 16.8161 16.6165 17.041 16.851L18.5402 18.4143C18.7651 18.6487 19.1773 18.6487 19.4022 18.4143L22.1008 15.6004C22.3257 15.3659 22.3257 14.936 22.1008 14.7015Z"/>
</svg>

<svg xmlns="http://www.w3.org/2000/svg" width="24" height="24" fill="currentColor" class="icon-house-circle-check-outline" viewBox="0 0 24 24">
  <path d="m12.356 2.234 8.358 7.387a5.5 5.5 0 0 0-1.124-.117c-.563 0-1.05.078-1.575.195l-6.221-5.51-6.597 5.823v8.871c0 .704.525 1.25 1.2 1.25h1.799v-5.94c0-.86.637-1.563 1.499-1.563h4.198a.27.27 0 0 1 .15.04c-.375.546-.638 1.172-.825 1.836H9.995v5.628h4.048c.45.742 1.049 1.407 1.724 1.876h-9.37c-1.687 0-2.999-1.368-2.999-3.127v-7.269l-.937.82a.907.907 0 0 1-1.274-.116c-.3-.391-.263-.977.112-1.33l9.895-8.754a.925.925 0 0 1 1.162 0m12.63 14.148c0 2.032-1.049 3.87-2.698 4.885-1.686 1.016-3.748 1.016-5.397 0-1.687-1.016-2.699-2.853-2.699-4.885 0-1.993 1.012-3.83 2.699-4.846 1.65-1.016 3.71-1.016 5.397 0a5.71 5.71 0 0 1 2.699 4.846m-2.885-1.68a.616.616 0 0 0-.862 0l-2.25 2.383-1.086-1.133a.616.616 0 0 0-.862 0 .68.68 0 0 0 0 .899l1.5 1.563a.616.616 0 0 0 .861 0l2.699-2.814a.68.68 0 0 0 0-.899"/>
</svg>
